X:1021
T:Marquis of Huntley's Reel.
M:C
L:1/8
Q:1/2=90
I: || ||
N:initial A added
Z:Jack Campin * www.campin.me.uk * 2009
K:A Dorian
A|E>AA>G A>AA>B|G>A``````B>c d/c/B/A/ GB |E>AA>G EA`Aa |gd        e/d/c/B/ A2    A :|
e|a>bc'a ea`c'a|b/a/g/e/ de  gd```````bg |a>bc'a e>ac'a|c'/b/a/g/ e^g      a/a/a a2 |
  a>bc'a b^gae |g>e``````d>g B>G``````d>B|E>AA>G E>AA>a|gd        e/d/c/B/ A2    A2|]

